!!!COM: Vivaldi, Antonio Lucio
!!!CDT: 1678/03/04-1741/08/28
!!!OPR: 12 Sonatas for Violin and Basso continuo
!!!OTL: Sonata in C minor, op. @{OPS}, no. @{ONM} (@{SCT})
!!!OPS: 2
!!!ONM: 7
!!!OMV: 2. Allemanda
!!!SCT: RV 8
!!!SCA: Antonio Vivaldi: Thematisch-systematisches Verzeichnis seiner Werke (Ryom-Verzeichnis)
!!!OMD: Allegro
!!!key: c
**kern	**fb	**kern
*part2	*	*part1
*staff2	*	*staff1
*ICklav	*	*ICstr
*Icemba	*	*Ivioln
*I"Basso continuo	*	*I"Violino
*I'bc	*	*I'v
*>[A,A,B,B1,B,B2]	*>[A,A,B,B1,B,B2]	*>[A,A,B,B1,B,B2]
*>norep[A,B,B2]	*>norep[A,B,B2]	*>norep[A,B,B2]
*>A	*>A	*>A
*clefF4	*	*clefG2
*k[b-e-]	*	*k[b-e-]
*c:	*	*c:
*M4/4	*	*M4/4
*met(c)	*	*met(c)
*MM120	*	*MM120
8r	.	8cc\
=1	=1	=1
4r	.	8gg\L
.	.	16ff\L
.	.	16ee-y\JJ
8r	.	8dd\L
8C/	.	8cc\J
8G\L	n	8.bn\L
16F\L	.	.
16E-y\JJ	.	16cc\Jk
8D/L	.	8dd\L
8C/J	.	8ee-y\J
=2	=2	=2
4BBn/	5	8ff\L
.	.	16gg\L
.	.	16ff\JJ
4GG/	6 4	8ee-y\L
.	5 n	8dd\J
16C\LL	.	16ee-y\LL
16c\	.	16dd\J
16B-X\	.	8cc\J
16c\JJ	.	.
16G\LL	.	4r
16c\	.	.
16B-y\	.	.
16c\JJ	.	.
=3	=3	=3
4A-X\	6	8r
.	.	8cc\
4AA-X/	.	8ff\L
.	.	16gg\L
.	.	16aa-X\JJ
16BB-y\LL	.	(16aa-y\LL
16B-y\	.	16gg\)
16A-y\	.	(16ff\
16B-y\JJ	.	16ee-y\JJ)
16F\LL	-	4dd\
16B-y\	.	.
16A-y\	.	.
16B-y\JJ	.	.
!!LO:LB:g=original
=4	=4	=4
4G\	.	8r
.	.	8b-y\
4GG/	.	8ee-y\L
.	.	16ff\L
.	.	16gg\JJ
16AA-X\LL	7	(16gg\LL
16A-X\	.	16ff\)
16G\	.	(16ee-y\
16A-y\JJ	.	16dd\JJ)
16E-y\LL	.	4cc\
16A-y\	.	.
16G\	.	.
16A-y\JJ	.	.
=5	=5	=5
4F\	n	8r
.	.	8an/
4FF/	.	8dd\L
.	.	16ee-y\L
.	.	16ff\JJ
8GG/L	n	16bn/LL
.	.	16a/
8G/J	.	16b/
.	.	16g/JJ
8c\L	.	8ee-y\L
8C\J	.	16dd\L
.	.	16cc\JJ
=6	=6	=6
8GG/L	n	16bn/LL
.	.	16a/
8G/J	.	16b/
.	.	16g/JJ
8c\L	.	8ee-y\L
8C\J	.	16dd\L
.	.	16cc\JJ
4D\	6	8ff\L
.	.	16ee-y\L
.	.	16dd\JJ
4E-y\	.	8gg\L
.	.	16ff\L
.	.	16ee-y\JJ
=7	=7	=7
8F\L	6-r -	(8dd-X\L
8G\	n	8bn\)
8A-X\	5	(8cc\
8F\J	-	8a-X\J)
8E-y\L	6	8g/L
8F\	.	8cc/
8G\	n	8G/
8GG\J	.	8b/J
!!LO:LB:g=original
=8	=8	=8
4C/	.	4c/
2c\	5	16r
.	.	16cc\LL
.	.	16dd\
.	.	16ee-y\JJ
.	4 2	16dd\LL
.	.	16cc\
.	.	16bn\
.	.	16a\JJ
4Bn\	6	8g/L
.	.	8f/JT
=9	=9	=9
4c\	.	16e-y/LL
.	.	16d/J
.	.	8c/J
2E-y\	5	16r
.	.	16ee-y\LL
.	.	16ff\
.	.	16gg\JJ
.	4-r 2	16ff\LL
.	.	16ee-y\
.	.	16dd\
.	.	16cc\JJ
4D\	6	8b-y/LT
.	.	8a-X/J
=10	=10	=10
8E-y\L	.	16g/LL
.	.	16f/J
8F\J	.	8e-y/J
8G\L	.	16r
.	.	16b-y\LL
8E-y\J	.	16ee-y\
.	.	16b-y\JJ
4A-X\	5	16cc\LL
.	.	16a-X\
.	.	16cc\
.	.	16ee-y\JJ
4AA-X/	6	8.ff\LT
.	.	16ee-y\Jk
=11	=11	=11
4BB-y/	5	16dd\LL
.	.	16b-y\
.	.	16dd\
.	.	16ff\JJ
4B-y\	6	8.gg\LT
.	.	16ff\Jk
4c\	5	16ee-y\LL
.	.	16cc\
.	.	16ee-y\
.	.	16gg\JJ
4C/	6-r	8.aa-X\LT
.	.	16gg\Jk
!!LO:PB:g=original
=12	=12	=12
4D\	5-r	16ff\LL
.	.	16dd\
.	.	16ff\
.	.	16aa-X\JJ
4d\	6	8.bb-y\L
.	.	16aa-y\Jk
4e-y\	.	16gg\LL
.	.	16aa-y\
.	.	16bb-y\
.	.	16gg\JJ
4GG/	6	16ee-y\LL
.	.	16ff\
.	.	16gg\
.	.	16ee-y\JJ
=13	=13	=13
4AA-X/	5	16cc\LL
.	.	16dd\
.	.	16ee-y\
.	.	16cc\JJ
4r	.	16a-X\LL
.	.	16b-y\
.	.	16cc\
.	.	16a-y\JJ
8BB-y/L	.	4B-y/
8C/J	.	.
8D/L	.	16r
.	.	16a-y/LL
8BB-y/J	.	16g/
.	.	16f/JJ
=14	=14	=14
8E-y\L	.	16g/LL
.	.	16d/
8G\J	.	16e-y/
.	.	16G/JJ
8A-X\L	6 5	16A-X/LL
.	.	16e-y/
8B-y\J	.	16B-y/
.	.	16d/JJ
4.E-y\	.	4.e-y/
=:|!|:	=:|!|:	=:|!|:
*>B	*>B	*>B
8r	.	8b-y\
=15	=15	=15
4r	.	8ee-y\L
.	.	16dd\L
.	.	16cc\JJ
8r	.	8b-y/L
8B-y\	.	8a-X/J
8e-y\L	.	8.g/L
16d\L	.	.
16c\JJ	.	16an/Jk
8B-y\L	.	8b-y\L
8A-X\J	.	16cc\L
.	.	16dd\JJ
!!LO:LB:g=original
=16	=16	=16
4G\	6	8ee-y\L
.	.	16ff\L
.	.	16gg\JJ
4An\	6	8.ff\LT
.	5	16ee-y\Jk
8.B-y\L	.	16dd\LL
.	.	16cc\J
.	.	8b-y\J
16c\Jk	.	.
8B-y\L	.	8r
8A-X\J	.	8b-y\
=17	=17	=17
4G\	.	8ee-y\L
.	.	16gg\L
.	.	16ff\JJ
8r	.	16ee-y\LL
.	.	16dd\
8E-y\	6	16cc\
.	.	16b-y\JJ
8A-X\L	.	8cc/L
16c\L	.	8A-X/J
16B-y\JJ	.	.
16A-y\LL	6	8r
16G\	.	.
16F\	.	8cc\
16E-y\JJ	.	.
=18	=18	=18
8F/L	-	8ff\L
8FF/J	.	16aa-X\L
.	.	16gg\JJ
8r	.	16ff\LL
.	.	16ee-y\
8F\	.	16dd\
.	.	16cc\JJ
8B-y\L	.	8dd/L
16d\L	.	8B-y/J
16c\JJ	.	.
16B-y\LL	.	8r
16A-X\	.	.
16G\	.	8dd\
16F\JJ	.	.
=19	=19	=19
4G\	.	8gg\L
.	.	16aan\L
.	.	16bb-y\JJ
4C/	6	8aa\L
.	.	8gg\J
8D\L	#	8ff#X\L
8d\J	.	16een\L
.	.	16dd\JJ
8G\L	.	8bb-y\L
8GG\J	.	16aa\L
.	.	16gg\JJ
!!LO:LB:g=original
=20	=20	=20
8D\L	#	8ff#X\L
8d\J	.	16een\L
.	.	16dd\JJ
8G\L	.	8bb-y\L
8GG\J	.	16aa\L
.	.	16gg\JJ
4D\	#	8ff#y\L
.	.	16gg\L
.	.	16aa\JJ
4En\	6	8cc\L
.	.	8cc\J
=21	=21	=21
8F#X\L	5	[4cc\
8En\J	.	.
8F#y\L	.	16cc\LL]
.	.	16ee-y\
8D\J	.	16dd\
.	.	16cc\JJ
4G\	n	8bn\L
.	.	16cc\L
.	.	16dd\JJ
4A\	6	8fn\L
.	.	8ffn\J
=22	=22	=22
8Bn\L	5	[4ff\
8A\J	.	.
8B\L	.	16ff\LL]
.	.	16aa-X\
8G\J	.	16gg\
.	.	16ff\JJ
4C/	n	8een\L
.	.	16ff\L
.	.	16gg\JJ
4D\	6	8b-y\L
.	.	8bb-y\J
=23	=23	=23
8En\L	5	[4bb-y\
8D\J	.	.
8E\L	.	16bb-y\LL]
.	.	16ddd-X\
8C\J	.	16ccc\
.	.	16bb-y\JJ
8F\L	-	8aa-X\L
8B-y\J	6 5	16gg\L
.	.	16ff\JJ
8c\L	5 4	8.een\Lt
8C\J	n	.
.	.	16ff\Jk
!!LO:LB:g=original
=24	=24	=24
8FF/L	-	4ff\
8F/J	.	.
8A-X\L	.	8r
8F\J	.	16ff\LL
.	.	16gg\JJ
8r	.	(16aa-X\LL
.	.	16bb-y\)
8F\	-	(16aa-y\
.	.	16gg\JJ)
8A-y\L	.	(16ff\LL
.	.	16ee-y\)
8F\J	.	(16dd\
.	.	16cc\JJ)
=25	=25	=25
8r	.	8b-y\L
8BB-y/	.	8dd\
8D/L	.	8ff\
8BB-y/J	.	8aa-X\J
8r	.	(16gg\LL
.	.	16aa-y\)
8E-y\	.	(16gg\
.	.	16ff\JJ)
8G\L	.	(16ee-y\LL
.	.	16dd\)
8E-y\J	.	(16cc\
.	.	16b-y\JJ)
=26	=26	=26
8r	.	8a-X\L
8AA-X/	.	8cc\
8C/L	.	8ee-y\
8AA-y/J	.	8gg\J
8r	.	(16ff\LL
.	.	16gg\)
8D\	.	(16ff\
.	.	16ee-y\JJ)
8F\L	.	(16dd\LL
.	.	16cc\)
8D\J	6nr	(16bn\
.	.	16a-y\JJ)
=27	=27	=27
8r	.	8g\L
8GG/	n	8bn\
8BBn/L	.	8dd\
8GG/J	.	8ff\J
4C/	.	8ee-y\L
.	.	16dd\L
.	.	16cc\JJ
4D\	6	8ff\L
.	.	16ee-y\L
.	.	16dd\JJ
!!LO:LB:g=original
=28	=28	=28
4E-y\	.	8gg\L
.	.	16ff\L
.	.	16ee-y\JJ
4F\	6	8dd\L
.	.	16ee-y\L
.	.	16ff\JJ
8G\L	n	4bn\
8F\	.	.
8E-y\	6	8r
8C\J	.	8cc\
=29	=29	=29
8BB-y\L	-	(16dd-X\LL
.	.	16cc\J)
8B-y\J	.	8dd-y\J
8A-X\L	.	8r
8AA-X\J	.	8ddn\
8GG/L	6 4	(16ee-y\LL
.	.	16dd\J)
8G/J	.	8ee-y\J
8c\L	.	8r
8B-y\J	6 4nr	8een\
=30	=30	=30
8A-X\L	6	(16ff\LL
.	.	16een\J)
8An\J	.	8ff\J
8d\L	.	8r
8c\J	4#| 2	8ff#X\
8Bn\L	6	8gg\L
8c\J	.	(16aa-X\L
.	.	16gg\JJ)
8A-X\L	6	(16ff\LL
.	.	16ee-y\)
8E-y\J	.	(16dd-X\
.	.	16cc\JJ)
=31	=31	=31
8F\L	6-r -	(8dd-X\L
8G\	n	8bn\)
8A-X\	5	(8cc\
8F\J	-	8a-X\J)
8E-y/L	6	8g/L
8F/	6 5	8cc/
8G/	5 4	8G/
8GG/J	n	8b/J
=32	=32	=32
8C\L	.	4c/
8c\	.	.
8Bn\	6	8r
8G\J	.	16gg\LL
.	.	16ff\JJ
8C\L	.	16ee-y\LL
.	.	16dd\J
8c\J	.	8cc\J
8B\L	6	8r
8G\J	.	16gg\LL
.	.	16ff\JJ
!!LO:LB:g=original
=33	=33	=33
8C\L	.	16ee-y\LL
.	.	16dd\J
8c\J	.	8cc\J
8A-X\L	6	8r
8E-y\J	6	8cc\
8F\L	6-r	(16dd-X\LL
.	.	16cc\)
8E-y\J	6	(16gg\
.	.	16cc\JJ)
8F\L	6-r	(16dd-y\LL
.	.	16cc\)
8E-y\J	6	(16gg\
.	.	16cc\JJ)
=34	=34	=34
8F\L	6-r	(16dd-X\LL
.	.	16cc\)
8E-y\J	6	(16gg\
.	.	16cc\JJ)
8F\L	6-r	(16dd-y\LL
.	.	16cc\)
8E-y\J	6	(16gg\
.	.	16cc\JJ)
4.F\	-	&{16aa-X\LL
.	.	16gg\&)
.	.	(16ff\
.	.	16ee-y\JJ)
.	.	(16dd-y\LL
.	.	16cc\)
8D\	6nr	(16bn\
.	.	16an\JJ)
=35	=35	=35
*>B1	*>B1	*>B1
16E-y\LL	6	8g/L
16D\	.	.
16E-y\	.	8cc/J
16F\JJ	.	.
8G/L	n	8G/L
8GG/J	.	8bn/J
4.C/	.	4.c/
=35:|!	=35:|!	=35:|!
*>B2	*>B2	*>B2
16E-y\LL	6	8g/L
16D\	.	.
16E-y\	.	8cc/J
16F\JJ	.	.
8G/L	n	8G/L
8GG/J	.	8bn/J
2C/	.	2c/
==	==	==
*-	*-	*-
!!!SMS: RV 8 / Estienne Roger, Amsterdam [facs.]
!!!ENC: Fran Bennion; rev. 06/21 E. Correia
!!!END: 2004/11/29
!!!ONB: Converted from MuseData with musedata2hum on Sat May 11 12:07:52 2024
!!!YEM: (C) 2004, 2004 Center for Computer Assisted Research in the Humanities.
!!!system-decoration: [(s1,s2)]
!!!URL-info: https://wiki.ccarh.org/wiki/MuseData:_Antonio_Vivaldi#Op._2:_Sonate_a_violino_e_basso_per_il_cembalo
!!!URL-pdf: https://pdf.musedata.org/vivaldi-op02-no07.pdf#page=2 MuseData edition
!!!URL-pdf: http://conquest.imslp.info/files/imglnks/usimg/b/b7/IMSLP99075-PMLP183164-Vivaldi_-_Sonatas_Op2.pdf#page=26 Estienne Roger Amsterdam: Estienne Roger, No.2, n.d.[1711].
!!!URL-youtube: https://www.youtube.com/watch?v=SiijZmW9jKM&t=4451s L'Arte dell'Arco
!!!title: @{OTL}, mov. @{OMV}
!!!filter-chint: chint -mid
!!!ONB: Accidentals in the score are in the old style.  Needs to be converted to a more modern style.
!!!EEV: 2024/05/11
!!!source-file: https://bitbucket.org/musedata/vivaldi/src/master/roger/op2/no07/stage2/02/01
!!!source-file: https://bitbucket.org/musedata/vivaldi/src/master/roger/op2/no07/stage2/02/02
